src/assets/selectIcons/materiale_9.svg

<svg xmlns="http://www.w3.org/2000/svg" viewBox="0 0 512 512" style="height: 512px; width: 512px;"><path d="M0 0h512v512H0z" fill="#000" fill-opacity="1"></path><g class="" transform="translate(0,0)" style=""><path d="M58.31 24.814L44.187 90.339 27.05 50.894c-3.463 13.536-3.63 28.752-2.328 42.395 7.427 74.81 70.83 162.556 154.83 236.173 15.377-15.942 30.388-32.237 44.783-48.732 6.82-7.815 13.5-15.678 20.018-23.568-59.05-73.228-104.055-148.414-115.58-214.524-4.027-11.108-15.646-14.908-25.596-17.36l11.53 19.868-31.305-22.445c-8.441-.189-17.618.604-25.092 2.113zm370.083-2.107c-2.92 13.842-5.738 27.685-15.046 41.527-.164-13.921-2.092-26.96-7.856-38.082-8.462 2.643-20.526 7.494-22.291 16.486-13.393 76.824-71.978 165.906-145.301 249.926C172.826 367.13 95.984 437.277 27.608 489.355c80.91-12.026 184.614-63.92 272.556-133.086 27.835-21.892 54.063-45.515 77.6-70.025-6.727 1.124-13.617 1.631-20.291 1.77l58.447-45.325c39.982-50.437 66.671-102.466 71.33-149.4.915-9.209 1.368-22.729-.642-34.805-2.01-12.077-6.486-21.931-13.252-26.371-8.677-5.693-24.034-9.17-39.578-9.45a98.183 98.183 0 0 0-5.385.044zM331.34 354.146a859.987 859.987 0 0 1-20.049 16.271 870.556 870.556 0 0 1-39.12 29.034c22.924 14.884 46.287 28.409 69.511 40.25a13010.71 13010.71 0 0 1 57.932 7.04c-5.536 5.312-11.915 8.882-18.942 11.292 36.526 15.689 71.873 26.592 103.694 31.322-49.14-37.427-102.652-84.185-153.026-135.209z" fill="#fff" fill-opacity="1"></path></g></svg>

<?xml version="1.0" encoding="UTF-8" standalone="no"?>
<!DOCTYPE svg PUBLIC "-//W3C//DTD SVG 1.1//EN" "http://www.w3.org/Graphics/SVG/1.1/DTD/svg11.dtd">
<svg width="100%" height="100%" viewBox="0 0 512 512" version="1.1" xmlns="http://www.w3.org/2000/svg" xmlns:xlink="http://www.w3.org/1999/xlink" xml:space="preserve" xmlns:serif="http://www.serif.com/" style="fill-rule:evenodd;clip-rule:evenodd;stroke-linejoin:round;stroke-miterlimit:2;">
    <rect x="0" y="0" width="512" height="512" style="fill-rule:nonzero;"/>
    <g>
        <path d="M58.31,24.814L44.187,90.339L27.05,50.894C23.587,64.43 23.42,79.646 24.722,93.289C32.149,168.099 95.552,255.845 179.552,329.462C194.929,313.52 209.94,297.225 224.335,280.73C231.155,272.915 237.835,265.052 244.353,257.162C185.303,183.934 140.298,108.748 128.773,42.638C124.746,31.53 113.127,27.73 103.177,25.278L114.707,45.146L83.402,22.701C74.961,22.512 65.784,23.305 58.31,24.814ZM428.393,22.707C425.473,36.549 422.655,50.392 413.347,64.234C413.183,50.313 411.255,37.274 405.491,26.152C397.029,28.795 384.965,33.646 383.2,42.638C369.807,119.462 311.222,208.544 237.899,292.564C172.826,367.13 95.984,437.277 27.608,489.355C108.518,477.329 212.222,425.435 300.164,356.269C327.999,334.377 354.227,310.754 377.764,286.244C371.037,287.368 364.147,287.875 357.473,288.014L415.92,242.689C455.902,192.252 482.591,140.223 487.25,93.289C488.165,84.08 488.618,70.56 486.608,58.484C484.598,46.407 480.122,36.553 473.356,32.113C464.679,26.42 449.322,22.943 433.778,22.663C431.983,22.628 430.187,22.643 428.393,22.707ZM331.34,354.146C324.739,359.67 318.055,365.094 311.291,370.417C298.524,380.458 285.479,390.14 272.171,399.451C295.095,414.335 318.458,427.86 341.682,439.701C360.998,442.004 380.309,444.351 399.614,446.741C394.078,452.053 387.699,455.623 380.672,458.033C417.198,473.722 452.545,484.625 484.366,489.355C435.226,451.928 381.714,405.17 331.34,354.146Z" style="fill:rgb(229,222,129);fill-rule:nonzero;"/>
    </g>
</svg>
